svg/fluentui-system-icons/ic_fluent_device_meeting_room_remote_28_regular.svg

<svg width="28" height="28" viewBox="0 0 28 28" fill="none" xmlns="http://www.w3.org/2000/svg">
<path d="M4.97358 5.57909C5.38892 4.05637 6.77218 3 8.35073 3H19.6515C21.23 3 22.6133 4.05637 23.0286 5.57909L25.8568 15.9475C26.5508 18.4921 24.635 21 21.9972 21H12.0017V19.5H21.9972C23.6458 19.5 24.8432 17.9326 24.4094 16.3422L21.5813 5.97377C21.3439 5.10364 20.5535 4.5 19.6515 4.5H8.35073C7.4487 4.5 6.65827 5.10364 6.42093 5.97376L5.32271 10H4.25056C4.08296 10 3.91833 10.0127 3.75757 10.0371L4.97358 5.57909ZM11.9922 24H20.252C20.6663 24 21.0021 23.6642 21.0021 23.25C21.0021 22.8358 20.6663 22.5 20.252 22.5H12.0017V23.75C12.0017 23.8341 11.9985 23.9175 11.9922 24ZM6.50064 17C7.32918 17 8.00085 16.3284 8.00085 15.5C8.00085 14.6716 7.32918 14 6.50064 14C5.67209 14 5.00043 14.6716 5.00043 15.5C5.00043 16.3284 5.67209 17 6.50064 17ZM2 13.25C2 12.0074 3.0075 11 4.25032 11H8.75096C9.99378 11 11.0013 12.0074 11.0013 13.25V23.75C11.0013 24.9926 9.99378 26 8.75096 26H4.25032C3.0075 26 2 24.9926 2 23.75V13.25ZM4.25032 12.5C3.83605 12.5 3.50021 12.8358 3.50021 13.25V23.75C3.50021 24.1642 3.83605 24.5 4.25032 24.5H8.75096C9.16523 24.5 9.50107 24.1642 9.50107 23.75V13.25C9.50107 12.8358 9.16523 12.5 8.75096 12.5H4.25032Z" fill="#212121"/>
</svg>

<svg xmlns="http://www.w3.org/2000/svg" width="28" height="28"><path d="M4.974 5.58A3.5 3.5 0 0 1 8.35 3h11.3a3.5 3.5 0 0 1 3.378 2.58l2.828 10.367C26.55 18.492 24.635 21 21.997 21h-9.995v-1.5h9.995a2.5 2.5 0 0 0 2.412-3.158L21.581 5.974a2 2 0 0 0-1.93-1.474h-11.3a2 2 0 0 0-1.93 1.474L5.323 10H4.25c-.168 0-.333.013-.493.037L4.974 5.58ZM11.992 24h8.26a.75.75 0 1 0 0-1.5h-8.25v1.25c0 .084-.004.168-.01.25Zm-5.491-7a1.5 1.5 0 1 0 0-3 1.5 1.5 0 0 0 0 3ZM2 13.25A2.25 2.25 0 0 1 4.25 11h4.501a2.25 2.25 0 0 1 2.25 2.25v10.5A2.25 2.25 0 0 1 8.751 26h-4.5A2.25 2.25 0 0 1 2 23.75v-10.5Zm2.25-.75a.75.75 0 0 0-.75.75v10.5c0 .414.336.75.75.75h4.501a.75.75 0 0 0 .75-.75v-10.5a.75.75 0 0 0-.75-.75h-4.5Z"/></svg>
